img/slideshow-mode.svg

<svg width="20" height="20" fill="none" xmlns="http://www.w3.org/2000/svg"><path d="M18 15H2v2h16v-2ZM16 5v6H4V5h12Zm2-2H2v10h16V3Z" fill="#000"/></svg>

<svg width="20" height="20" viewBox="0 0 20 20" fill="none" xmlns="http://www.w3.org/2000/svg">
<path d="M18 15H2V17H18V15Z" fill="black"/>
<path d="M16 5V11H4V5H16ZM18 3H2V13H18V3Z" fill="black"/>
</svg>
